!!!!SEGMENT: Lhe2017-Nigra_sum.krn
!!!id: Lhe2017
!!!AGN: Motet
!!!SCT: Perkins (1969)
!!!voices: 5
!!!COM: Jean Lhéritier
!!!OTL: Nigra sum
**kern	**kern	**kern	**kern	**kern
*part5	*part4	*part3	*part2	*part1
*staff5	*staff4	*staff3	*staff2	*staff1
*I"Bassus	*I"Tenor II	*I"Tenor I	*I"Altus	*I"Superius
*I'B	*I'T. II	*I'T. I	*I'A	*I'S
*clefF4	*clefGv2	*clefGv2	*clefG2	*clefG2
*k[b-]	*k[b-]	*k[b-]	*k[b-]	*k[b-]
*F:	*F:	*F:	*F:	*F:
*M2/1	*M2/1	*M2/1	*M2/1	*M2/1
*met(C|)	*met(C|)	*met(C|)	*met(C|)	*met(C|)
!!Section: Prima pars: Nigra sum
!!!OMD: Prima pars: Nigra sum
=1	=1	=1	=1	=1
0r	0d	0r	0r	0r
=2	=2	=2	=2	=2
0r	1d	0r	1r	0r
.	[1c	.	[1g	.
=3	=3	=3	=3	=3
0r	2c]	0r	1g]	0r
.	2G	.	.	.
.	2B-y	.	1g	.
.	2c	.	.	.
=4	=4	=4	=4	=4
0r	2d	0r	1.f	0dd
.	1B-y	.	.	.
.	2B-y	.	2d	.
=5	=5	=5	=5	=5
0r	1B-y	0r	2f	1dd
.	.	.	2g	.
.	2F	.	1a	[1cc
.	[2f	.	.	.
=6	=6	=6	=6	=6
0r	2f]	0r	2r	2cc]
.	2f	.	2d	2a
.	1e-X	.	[1g	2b-y
.	.	.	.	2cc
=7	=7	=7	=7	=7
0r	1.d	0r	2g]	1dd
.	.	.	2.b-y	.
.	.	.	.	1b-y
.	.	.	4a	.
.	[2B-y	.	4g	.
.	.	.	4f	.
=8	=8	=8	=8	=8
1G	4B-]	0d	1g	2b-y
.	4c	.	.	.
.	4d	.	.	2b-y
.	4e	.	.	.
[1F	2f	.	[1a	2a
.	4d	.	.	2ff
.	4e	.	.	.
=9	=9	=9	=9	=9
2F]	4f	1d	1a]	2dd
.	4g	.	.	.
2D	1a	.	.	1ff
2F	.	[1c	1f	.
2G	4g	.	.	4ee
.	4f	.	.	4dd
=10	=10	=10	=10	=10
1A	1e	2c]	2r	1cc
.	.	2A	2a	.
2r	2d	2.B-y	2f	[1dd
2G	2G	.	[2b-y	.
.	.	4c	.	.
=11	=11	=11	=11	=11
2G	2.B-y	2d	2b-]	1dd]
2G	.	2B-y	4a	.
.	4c	.	4g	.
1D	[1d	2A	2.f	2r
.	.	2a	.	2ff
.	.	.	4g	.
=12	=12	=12	=12	=12
2r	1d]	2f	2a	2dd
2d	.	1a	2d	1ff
2d	2r	.	2.f	.
2d	2d	4g	.	4ee
.	.	4f	4g	4dd
=13	=13	=13	=13	=13
1A	2e	1e	1.a	1cc
.	2c	.	.	.
2r	2.f	2.d	.	2dd
2D	.	.	2a	[2ff
.	4g	4d	.	.
=14	=14	=14	=14	=14
2F	2a	2c	2f	4ff]
.	.	.	.	4ee
2G	4g	2B-y	2b-y	1dd
.	4f	.	.	.
1A	1e	2.c	1a	.
.	.	.	.	2cc
.	.	4B-y	.	.
=15	=15	=15	=15	=15
2D	1d	2A	2r	1dd
1G	.	1B-y	1g	.
.	2r	.	.	2r
4F	2d	4A	2g	[2dd
4E	.	4G	.	.
=16	=16	=16	=16	=16
1D	1f	2F	2a	2dd]
.	.	2F	2f	2dd
2r	1e	2c	2g	2ee
2C	.	2c	2a	2cc
=17	=17	=17	=17	=17
2G	2d	1G	1.b-y	2dd
2G	2G	.	.	2ee
[1D	2B-y	2r	.	[1ff
.	2B-y	[2d	4a	.
.	.	.	4g	.
=18	=18	=18	=18	=18
1D]	0A	2d]	2.f	2ff]
.	.	2d	.	4ee
.	.	.	4g	4dd
1r	.	2e	4a	2.cc
.	.	.	4b-y	.
.	.	2c	[2a	.
.	.	.	.	8b-yL
.	.	.	.	8aJ
=19	=19	=19	=19	=19
0r	0r	2d	4a]	1b-y
.	.	.	4f	.
.	.	2e	2g	.
.	.	2.f	2d	4a
.	.	.	.	4b-y
.	.	.	[2a	4cc
.	.	8eL	.	4dd
.	.	8dJ	.	.
=20	=20	=20	=20	=20
0r	2r	2c	4a]	2ee
.	.	.	4g	.
.	1d	2d	4f	1ff
.	.	.	4e	.
.	.	1B-y	2f	.
.	2d	.	2g	4ee
.	.	.	.	4dd
=21	=21	=21	=21	=21
1r	2e	2A	1a	1cc
.	2c	2.a	.	.
2.G	2d	.	1b-y	1r
.	.	8gL	.	.
.	.	8fJ	.	.
.	2e	2g	.	.
4G	.	.	.	.
=22	=22	=22	=22	=22
2A	1f	2c	2.a	0r
2F	.	1d	.	.
.	.	.	8gL	.
.	.	.	8aJ	.
2G	1e	.	2b-y	.
2A	.	2c	2a	.
=23	=23	=23	=23	=23
2.B-y	2d	2.d	1f	2r
.	1f	.	.	1dd
8AL	.	8cL	.	.
8GJ	.	8B-yJ	.	.
2F	.	2A	2r	.
2G	4e	2B-y	[2g	2dd
.	4d	.	.	.
=24	=24	=24	=24	=24
1C	2c	1G	2g]	2ee
.	2e	.	2a	2cc
1G	1d	2r	2b-y	2dd
.	.	2G	2g	2ee
=25	=25	=25	=25	=25
2r	1r	1d	2a	1ff
2D	.	.	2b-y	.
1A	2r	1c	[1cc	1ee
.	2e	.	.	.
=26	=26	=26	=26	=26
2.G	1.g	1.d	2cc]	2r
.	.	.	1b-y	1dd
8FL	.	.	.	.
8EJ	.	.	.	.
[1D	.	.	.	.
.	2f	2d	4a	2dd
.	.	.	4g	.
=27	=27	=27	=27	=27
2D]	1d	2.A	2f	2.ff
2D	.	.	1a	.
.	.	4B-y	.	8eeL
.	.	.	.	8ddJ
1A	2e	1c	.	4cc
.	.	.	.	4dd
.	2c	.	4g	[2ee
.	.	.	4f	.
=28	=28	=28	=28	=28
1B-y	1d	2B-y	1g	4ee]
.	.	.	.	4dd
.	.	2G	.	1dd
1A	1e	2c	1a	.
.	.	2A	.	2cc#i
=29	=29	=29	=29	=29
2D	1d	2.B-y	2f	0dd
1G	.	.	2b-y	.
.	.	4c	.	.
.	2r	4d	1a	.
.	.	4e	.	.
2F	[2d	4f	.	.
.	.	4d	.	.
=30	=30	=30	=30	=30
2G	2d]	4e	2r	0r
.	.	4d	.	.
2A	2c	2.f	1a	.
1B-y	2d	.	.	.
.	.	4e	.	.
.	2d	4d	2f	.
.	.	4c	.	.
=31	=31	=31	=31	=31
1G	2B-y	2.d	2g	2r
.	2B-y	.	1b-y	1dd
.	.	4e	.	.
2F	1c	1f	.	.
2F	.	.	2a	2cc
=32	=32	=32	=32	=32
2B-y	0r	2r	2.f	2dd
2B-y	.	1d	.	1ff
.	.	.	4g	.
1A	.	.	4a	.
.	.	.	4b-y	.
.	.	2c	4cc	2ee
.	.	.	4a	.
=33	=33	=33	=33	=33
1r	0r	2d	2b-y	1dd
.	.	1f	1a	.
2r	.	.	.	1cc
[2c	.	2e	2g	.
=34	=34	=34	=34	=34
2c]	0r	1d	2a	1ff
2B-y	.	.	2b-y	.
2c	.	1c	2g	2ee
2A	.	.	[2a	[2ff
=35	=35	=35	=35	=35
2B-y	2r	1d	2a]	2ff]
2B-y	1d	.	2g	4ee
.	.	.	.	4dd
1A	.	1r	1a	2ff
.	2c	.	.	[2ee
=36	=36	=36	=36	=36
1B-y	2d	1r	2f	4ee]
.	.	.	.	4dd
.	1f	.	4d	1dd
.	.	.	4e	.
2.A	.	2r	4f	.
.	.	.	4g	.
.	[2e	[2c	[2a	2cc#i
4G	.	.	.	.
=37	=37	=37	=37	=37
2F	4e]	2c]	4a]	1dd
.	4d	.	4g	.
2G	1d	2B-y	1b-y	.
1E	.	1G	.	1r
.	2c#i	.	4a	.
.	.	.	4g	.
=38	=38	=38	=38	=38
1D	1d	1A	2.f	1.ff
.	.	.	4g	.
[1D	2r	[1f	[1a	.
.	[2d	.	.	2ee
=39	=39	=39	=39	=39
2D]	2d]	2f]	1a]	2dd
2D	2d	2e	.	2cc
2D	2.f	2d	1r	2b-y
2D	.	2c	.	2a
.	4f	.	.	.
=40	=40	=40	=40	=40
2E	2e-X	2B-y	0r	2g
2F	2c	2A	.	2.a
2G	2e-i	2B-y	.	.
.	.	.	.	4g
2C	2e-i	2c	.	[2g
=41	=41	=41	=41	=41
1D	1d	1A	1a	2g]
.	.	.	.	2f#i
2.G	[1d	2G	[1b-y	2g
.	.	[2g	.	[2dd
4F	.	.	.	.
=42	=42	=42	=42	=42
1D	1d]	2g]	2b-]	2dd]
.	.	2f	2a	2ff
1r	2r	2.g	1b-y	2ee
.	2G	.	.	[2dd
.	.	4f	.	.
=43	=43	=43	=43	=43
2r	1.c	1e	0g	2dd]
2C	.	.	.	2cc#i
[1G	.	2.d	.	[1dd
.	2B-y	.	.	.
.	.	4c	.	.
=44	=44	=44	=44	=44
2G]	1A	4d	1a	1dd]
.	.	4e	.	.
2F	.	2f	.	.
1G	1B-y	2e	2r	1r
.	.	[2d	2d	.
=45	=45	=45	=45	=45
1E	1G	2d]	1.g	1r
.	.	2c#i	.	.
1D	1A	1d	.	2r
.	.	.	2f	2a
=46	=46	=46	=46	=46
0r	1G	2r	1g	1.dd
.	.	2d	.	.
.	1r	[1g	1e	.
.	.	.	.	2cc
=47	=47	=47	=47	=47
2r	0r	2g]	2d	1dd
2D	.	2f	1B-y	.
[1d	.	1g	.	1b-y
.	.	.	2G	.
=48	=48	=48	=48	=48
2d]	2r	1e	2A	2a
2c	2A	.	2.a	2ee
1d	[1a	1d	.	2ff
.	.	.	4g	.
.	.	.	4f	2dd
.	.	.	4e	.
=49	=49	=49	=49	=49
1B-y	2a]	2r	1d	2ff
.	2g	2G	.	4ee
.	.	.	.	4dd
1A	1a	2c	1e	2cc
.	.	2A	.	2cc
=50	=50	=50	=50	=50
2r	1f	4B-y	2d	1dd
.	.	4A	.	.
2D	.	1d	1a	.
1A	2e	.	.	2r
.	[2a	2c#i	2a	2ee
=51	=51	=51	=51	=51
2D	4a]	1d	2f	2ff
.	4g	.	.	.
2.d	4f	.	1a	2dd
.	4e	.	.	.
.	1d	2r	.	2ff
4c	.	.	.	.
2B-y	.	2G	2g	4ee
.	.	.	.	4dd
=52	=52	=52	=52	=52
1A	1e	2c	1a	2cc
.	.	2A	.	2cc
2r	2d	4B-y	2.f	1dd
.	.	4A	.	.
2D	2f	[2d	.	.
.	.	.	4g	.
=53	=53	=53	=53	=53
1A	1e	2d]	4a	2r
.	.	.	4b-y	.
.	.	2c	1a	2ee
2D	2r	2d	.	2ff
2A	2c	2c	4g	[2ee
.	.	.	4f	.
=54	=54	=54	=54	=54
2G	2B-y	1d	1g	4ee]
.	.	.	.	4dd
2B-y	2G	.	.	1dd
1A	2c	1e	1a	.
.	2c	.	.	2cc#i
=55	=55	=55	=55	=55
[0D	2A	2d	2f	[0dd
.	1d	1f	1a	.
.	2d	2f	2a	.
=56	=56	=56	=56	=56
1D]	2d	2f	2a	1dd]
.	2d	2f	2b-y	.
1r	1e-X	1g	2cc	1r
.	.	.	[2b-y	.
=57	=57	=57	=57	=57
1r	1e-i	1g	2.b-]	1r
.	.	.	8aL	.
.	.	.	8gJ	.
[1D	2d	2.a	2.f	2r
.	4c	.	.	[2a
.	4B-y	4g	4e	.
=58	=58	=58	=58	=58
2D]	4A	4f	0d	2a]
.	4G	4e	.	.
2D	4F	2f	.	2a
.	4E	.	.	.
2D	1F	2d	.	2a
2D	.	2f	.	2b-y
=59	=59	=59	=59	=59
1E-X	1G	2e-X	0r	2cc
.	.	1d	.	1b-y
1E-i	1G	.	.	.
.	.	2c	.	4a
.	.	.	.	4g
=60	=60	=60	=60	=60
2.D	2A	1d	0r	4f
.	.	.	.	4g
.	2.f	.	.	2.a
4E	.	.	.	.
2F	.	2c	.	.
.	4e	.	.	4g
2G	4d	2B-y	.	[2g
.	4c	.	.	.
=61	=61	=61	=61	=61
1D	1d	1A	1a	2g]
.	.	.	.	2f#i
2.G	[1d	2G	[1b-y	2g
.	.	[2g	.	[2dd
4F	.	.	.	.
=62	=62	=62	=62	=62
1D	1d]	2g]	2b-]	2dd]
.	.	2f	2a	2ff
1r	2r	2.g	1b-y	2ee
.	2G	.	.	[2dd
.	.	4f	.	.
=63	=63	=63	=63	=63
2r	1.c	1e	0g	2dd]
2C	.	.	.	2cc#i
[1G	.	2.d	.	[1dd
.	2B-y	.	.	.
.	.	4c	.	.
=64	=64	=64	=64	=64
2G]	1A	4d	1a	1dd]
.	.	4e	.	.
2F	.	2f	.	.
1G	1B-y	2e	2r	1r
.	.	[2d	2d	.
=65	=65	=65	=65	=65
1E	1G	2d]	1.g	1r
.	.	2c#i	.	.
1D	1A	1d	.	2r
.	.	.	2f	2a
=66	=66	=66	=66	=66
0r	1G	2r	1g	1.dd
.	.	2d	.	.
.	1r	[1g	1e	.
.	.	.	.	2cc
=67	=67	=67	=67	=67
2r	0r	2g]	2d	1dd
2D	.	2f	1B-y	.
[1d	.	1g	.	1b-y
.	.	.	2G	.
=68	=68	=68	=68	=68
2d]	2r	1e	2A	2a
2c	2A	.	2.a	2ee
1d	[1a	1d	.	2ff
.	.	.	4g	.
.	.	.	4f	2dd
.	.	.	4e	.
=69	=69	=69	=69	=69
1B-y	2a]	2r	1d	2ff
.	2g	2G	.	4ee
.	.	.	.	4dd
1A	1a	2c	1e	2cc
.	.	2A	.	2cc
=70	=70	=70	=70	=70
2r	1f	4B-y	2d	1dd
.	.	4A	.	.
2D	.	1d	1a	.
1A	2e	.	.	2r
.	[2a	2c#i	2a	2ee
=71	=71	=71	=71	=71
2D	4a]	1d	2f	2ff
.	4g	.	.	.
2.d	4f	.	1a	2dd
.	4e	.	.	.
.	1d	2r	.	2ff
4c	.	.	.	.
2B-y	.	2G	2g	4ee
.	.	.	.	4dd
=72	=72	=72	=72	=72
1A	1e	2c	1a	2cc
.	.	2A	.	2cc
2r	2d	4B-y	2.f	1dd
.	.	4A	.	.
2D	2f	[2d	.	.
.	.	.	4g	.
=73	=73	=73	=73	=73
1A	1e	2d]	4a	2r
.	.	.	4b-y	.
.	.	2c	1a	2ee
2D	2r	2d	.	2ff
2A	2c	2c	4g	[2ee
.	.	.	4f	.
=74	=74	=74	=74	=74
2G	2B-y	1d	1g	4ee]
.	.	.	.	4dd
2B-y	2G	.	.	1dd
1A	2c	1e	1a	.
.	2c	.	.	2cc#i
=75	=75	=75	=75	=75
[0D	1A	0d	2r	[0dd
.	.	.	1a	.
.	[1a	.	.	.
.	.	.	2g	.
=76	=76	=76	=76	=76
1D]	2a]	1.a	2f	0dd]
.	2g	.	2e	.
[1d	2f	.	1d	.
.	2e	2g	.	.
=77	=77	=77	=77	=77
2d]	1d	2f	1a	0r
2c	.	2e	.	.
2B-y	1f	2d	[1b-y	.
2A	.	[2c	.	.
=78	=78	=78	=78	=78
1G	1g	2c]	1b-]	1.dd
.	.	2B-y	.	.
1A	1e	1c	2.a	.
.	.	.	.	2cc
.	.	.	4g	.
=79	=79	=79	=79	=79
1D	2d	1d	4f	2b-y
.	.	.	4e	.
.	2A	.	2f	2a
1r	2c	1r	2e	2g
.	2d	.	[2d	2f
=80	=80	=80	=80	=80
0r	1A	1.a	2d]	1e
.	.	.	2c	.
.	[1a	.	2.f	[1d
.	.	2g	.	.
.	.	.	8eL	.
.	.	.	8dJ	.
=81	=81	=81	=81	=81
1.d	2a]	2f	2f	1d]
.	2g	2e	2g	.
.	2f	1d	1a	1r
2c	2e	.	.	.
=82	=82	=82	=82	=82
2B-y	2d	2.G	2.g	0r
2A	2c	.	.	.
.	.	4A	4f	.
2G	2B-y	4B-y	2e	.
.	.	4c	.	.
2F	[2A	[2d	2d	.
=83	=83	=83	=83	=83
1E	2A]	2d]	1g	1ee
.	2G	2c	.	.
[1D	1A	2.d	2.f	[1ff
.	.	8cL	4g	.
.	.	8B-yJ	.	.
=84	=84	=84	=84	=84
1D]	1d	1A	1a	2ff]
.	.	.	.	2ee
[1G	1r	2r	1b-y	2dd
.	.	2G	.	2cc
=85	=85	=85	=85	=85
1G]	2r	2d	1g	1b-y
.	2G	2e	.	.
1D	[1d	1f	1a	2a
.	.	.	.	[2ff
=86	=86	=86	=86	=86
1.d	1d]	2B-y	2.f	2ff]
.	.	2.f	.	4ee
.	.	.	4e	4dd
.	2B-y	.	2d	2ff
.	.	4d	.	.
2c	2c	[2g	2e	[2ee
=87	=87	=87	=87	=87
2B-y	2d	4g]	2f	4ee]
.	.	4f	.	4dd
2B-y	2B-y	4e	2g	1dd
.	.	4d	.	.
1A	1c	1e	1a	.
.	.	.	.	2cc#i
=88	=88	=88	=88	=88
2.D	2A	[0dl	2.f	[0ddl
.	2.d	.	.	.
4E	.	.	4g	.
2F	.	.	2a	.
.	4c	.	.	.
[2G	4B-y	.	[2b-y	.
.	4A	.	.	.
=89	=89	=89	=89	=89
2G]	2G	0d_	4b-]	0dd_
.	.	.	4a	.
2F#i	2A	.	1a	.
1G	1B-y	.	.	.
.	.	.	2g	.
=90	=90	=90	=90	=90
00Dl	00Al	00d]	00al	00dd]
==	==	==	==	==
*-	*-	*-	*-	*-
!!!system-decoration: [*]
!!!RDF**kern: i = editorial accidental
!!!RDF**kern: l = terminal long
!!!ENC: Benjamin Ory
!!!END: 2022/5/4
!!!EED: Benjamin Ory
!!!EEV: 2022/05/04
!!!YEC: Copyright 2022 Benjamin Ory, All Rights Reserved
!!!ONB: Translated from MusicXML on 2022/05/04
